libs/icons/src/svg/danger-filled.svg

<svg xmlns="http://www.w3.org/2000/svg" viewBox="0 0 16 16" class="sageicon"><path d="M8 0C3.6 0 0 3.6 0 8s3.6 8 8 8 8-3.6 8-8-3.6-8-8-8Zm0 12c-.6 0-1-.4-1-1s.4-1 1-1 1 .4 1 1-.4 1-1 1Zm1-3H7V4h2v5Z"/></svg>

<svg width="16" height="16" viewBox="0 0 16 16" fill="none" xmlns="http://www.w3.org/2000/svg">
<g clip-path="url(#clip0_4_241)">
<path d="M8 0C3.6 0 0 3.6 0 8C0 12.4 3.6 16 8 16C12.4 16 16 12.4 16 8C16 3.6 12.4 0 8 0ZM8 12C7.4 12 7 11.6 7 11C7 10.4 7.4 10 8 10C8.6 10 9 10.4 9 11C9 11.6 8.6 12 8 12ZM9 9H7V4H9V9Z" fill="#202327"/>
</g>
<defs>
<clipPath id="clip0_4_241">
<rect width="16" height="16" fill="white"/>
</clipPath>
</defs>
</svg>
